images/smartphone-header.svg

<svg width="10" height="15" viewBox="0 0 10 15" fill="none" xmlns="http://www.w3.org/2000/svg">
<path d="M8.5 0.0608521H1.5C0.672848 0.0608521 0 0.688955 0 1.4611V13.5966C0 14.3687 0.672848 14.9968 1.5 14.9968H8.5C9.32715 14.9968 10 14.3687 10 13.5966V1.4611C10 0.688955 9.32715 0.0608521 8.5 0.0608521ZM1.5 0.99435H8.5C8.77588 0.99435 9 1.20357 9 1.4611V11.2628H1V1.4611C1 1.20357 1.22412 0.99435 1.5 0.99435ZM8.5 14.0633H1.5C1.22412 14.0633 1 13.8541 1 13.5966V12.1963H9V13.5966C9 13.8541 8.77588 14.0633 8.5 14.0633Z" fill="#757575"/>
<path d="M2.35355 12.7998C2.54882 12.9822 2.54882 13.2778 2.35355 13.4601C2.15828 13.6425 1.84172 13.6425 1.64645 13.4601C1.45118 13.2778 1.45118 12.9822 1.64645 12.7998C1.84172 12.6175 2.15828 12.6175 2.35355 12.7998Z" fill="#757575"/>
</svg>

<svg width="10" height="15" fill="none" xmlns="http://www.w3.org/2000/svg"><path d="M8.5.06h-7C.673.06 0 .69 0 1.462v12.136c0 .772.673 1.4 1.5 1.4h7c.827 0 1.5-.628 1.5-1.4V1.46c0-.772-.673-1.4-1.5-1.4zm-7 .934h7c.276 0 .5.21.5.467v9.802H1V1.46c0-.257.224-.467.5-.467zm7 13.07h-7c-.276 0-.5-.21-.5-.467v-1.4h8v1.4c0 .257-.224.466-.5.466z" fill="#757575"/><path d="M2.354 12.8a.445.445 0 010 .66.525.525 0 01-.708 0 .445.445 0 010-.66.525.525 0 01.708 0z" fill="#757575"/></svg>
